img/parceiros/dogs.svg

<svg width="152" height="33" viewBox="0 0 152 33" fill="none" xmlns="http://www.w3.org/2000/svg">
<path fill-rule="evenodd" clip-rule="evenodd" d="M23.024 14.2578H25.741C28.549 14.2578 30.066 17.0434 28.237 18.8482L25.577 21.4713C25.865 23.027 26.836 24.4336 28.296 25.4101C29.7573 26.3872 31.6 26.8627 33.457 26.7419C35.314 26.6212 37.0492 25.9131 38.317 24.7586C39.5838 23.6045 40.2891 22.0885 40.292 20.5134C40.2917 20.2394 40.3554 19.9681 40.4792 19.7149C40.6031 19.4617 40.7847 19.2317 41.0138 19.0381C41.2429 18.8444 41.5148 18.6909 41.8141 18.5863C42.1134 18.4817 42.4342 18.4281 42.758 18.4285C43.4117 18.4287 44.0386 18.6484 44.5011 19.0393C44.9636 19.4301 45.2239 19.9603 45.225 20.5134C45.2248 22.7015 44.4103 24.834 42.897 26.6083C41.764 27.934 40.2788 29.0161 38.5612 29.7674C36.8436 30.5186 34.9414 30.9181 33.008 30.9335C31.0745 30.949 29.1638 30.5801 27.4296 29.8565C25.6955 29.1328 24.1865 28.0747 23.024 26.7674C21.8615 28.0747 20.3525 29.1328 18.6183 29.8565C16.8842 30.5801 14.9735 30.949 13.04 30.9335C11.1066 30.9181 9.20443 30.5186 7.48679 29.7674C5.76915 29.0161 4.28402 27.934 3.15099 26.6083C1.63734 24.8341 0.822466 22.7016 0.821992 20.5134C0.821728 20.2394 0.885381 19.9679 1.0093 19.7147C1.13322 19.4615 1.31498 19.2314 1.54415 19.0378C1.77333 18.8441 2.04542 18.6906 2.34483 18.586C2.64424 18.4815 2.96509 18.4279 3.28899 18.4285C3.94268 18.4287 4.56956 18.6484 5.03207 19.0393C5.49458 19.4301 5.75493 19.9603 5.75599 20.5134C5.75322 22.091 6.45552 23.611 7.72199 24.7687C8.66763 25.633 9.88203 26.2542 11.2259 26.5611C12.5697 26.868 13.9886 26.8481 15.3197 26.5037C16.6508 26.1594 17.8403 25.5045 18.7516 24.6143C19.6629 23.724 20.2592 22.6344 20.472 21.4704L17.81 18.8474C15.982 17.0434 17.498 14.2587 20.31 14.2587H23.024V14.2578Z" fill="#9C9C9C"/>
<path d="M34.535 8.69858C35.1826 8.69902 35.8239 8.59151 36.4224 8.38217C37.0209 8.17284 37.5647 7.86579 38.0229 7.47856C38.4811 7.09133 38.8447 6.63152 39.0928 6.12538C39.3409 5.61924 39.4687 5.07669 39.469 4.52873C39.4687 3.98078 39.3409 3.43823 39.0928 2.93209C38.8447 2.42595 38.4811 1.96614 38.0229 1.57891C37.5647 1.19168 37.0209 0.884628 36.4224 0.675294C35.8239 0.465959 35.1826 0.358443 34.535 0.358888C33.8875 0.358555 33.2463 0.466153 32.6479 0.675537C32.0496 0.884921 31.5058 1.19199 31.0477 1.57921C30.5896 1.96642 30.2262 2.4262 29.9781 2.93229C29.7301 3.43837 29.6023 3.98085 29.602 4.52873C29.6023 5.07662 29.7301 5.61909 29.9781 6.12518C30.2262 6.63126 30.5896 7.09104 31.0477 7.47826C31.5058 7.86548 32.0496 8.17255 32.6479 8.38193C33.2463 8.59132 33.8875 8.69891 34.535 8.69858ZM11.512 8.69858C12.1595 8.69891 12.8007 8.59132 13.3991 8.38193C13.9974 8.17255 14.5412 7.86548 14.9993 7.47826C15.4574 7.09104 15.8208 6.63126 16.0689 6.12518C16.3169 5.61909 16.4447 5.07662 16.445 4.52873C16.4447 3.98085 16.3169 3.43837 16.0689 2.93229C15.8208 2.4262 15.4574 1.96642 14.9993 1.57921C14.5412 1.19199 13.9974 0.884921 13.3991 0.675537C12.8007 0.466153 12.1595 0.358555 11.512 0.358888C10.8644 0.358443 10.2231 0.465959 9.62461 0.675294C9.02614 0.884628 8.48228 1.19168 8.02409 1.57891C7.5659 1.96614 7.20236 2.42595 6.95423 2.93209C6.70611 3.43823 6.57827 3.98078 6.578 4.52873C6.57827 5.07669 6.70611 5.61924 6.95423 6.12538C7.20236 6.63152 7.5659 7.09133 8.02409 7.47856C8.48228 7.86579 9.02614 8.17284 9.62461 8.38217C10.2231 8.59151 10.8644 8.69902 11.512 8.69858ZM79.445 1.37766C80.205 1.37766 80.829 1.56127 81.317 1.9285C81.805 2.29573 82.049 2.77804 82.049 3.37543V23.9666C82.049 24.5868 81.819 25.0801 81.357 25.4473C80.897 25.8146 80.286 25.9982 79.527 25.9982C78.767 25.9982 78.157 25.8146 77.695 25.4482C77.234 25.0801 77.003 24.5868 77.003 23.9674V23.106C76.406 24.047 75.538 24.7814 74.398 25.3094C73.286 25.8374 72.011 26.1014 70.573 26.1014C68.863 26.1014 67.331 25.7342 65.975 24.9997C64.645 24.2653 63.601 23.2321 62.841 21.9003C62.108 20.5464 61.742 18.9971 61.742 17.2523C61.742 15.5076 62.108 13.9811 62.841 12.6721C63.601 11.364 64.645 10.3537 65.975 9.64204C67.304 8.93043 68.837 8.5742 70.573 8.5742C72.011 8.5742 73.286 8.8272 74.399 9.33235C75.4835 9.81448 76.3752 10.5572 76.962 11.4672V3.30604C76.962 2.73235 77.179 2.27289 77.613 1.9285C78.075 1.56127 78.685 1.37766 79.445 1.37766ZM71.916 22.7617C73.544 22.7617 74.792 22.2912 75.66 21.3494C76.555 20.4085 77.003 19.0648 77.003 17.3209C77.003 15.5761 76.555 14.2443 75.66 13.327C74.792 12.3853 73.558 11.914 71.957 11.914C70.329 11.914 69.067 12.3734 68.172 13.2923C67.277 14.2104 66.829 15.5304 66.829 17.2523C66.829 18.9971 67.277 20.351 68.172 21.3156C69.067 22.2802 70.315 22.7617 71.916 22.7617ZM96.357 26.1014C94.323 26.1014 92.532 25.746 90.986 25.0344C89.466 24.3228 88.286 23.3015 87.445 21.9697C86.604 20.6378 86.183 19.0885 86.183 17.3209C86.183 15.5533 86.603 14.015 87.445 12.7068C88.286 11.375 89.466 10.3537 90.985 9.64204C92.532 8.93043 94.323 8.5742 96.357 8.5742C98.392 8.5742 100.169 8.92958 101.688 9.64204C103.211 10.3331 104.447 11.4028 105.229 12.7068C106.07 14.015 106.491 15.5533 106.491 17.3209C106.491 19.0893 106.07 20.6378 105.229 21.9697C104.447 23.2737 103.211 24.3434 101.688 25.0344C100.169 25.7452 98.392 26.1014 96.358 26.1014H96.357ZM96.317 22.7617C97.972 22.7617 99.233 22.3022 100.101 21.3841C100.97 20.466 101.404 19.1113 101.404 17.3209C101.404 15.5533 100.97 14.2104 100.101 13.2923C99.233 12.3506 97.985 11.8801 96.357 11.8801C94.73 11.8801 93.467 12.3506 92.573 13.2923C91.705 14.2104 91.27 15.5533 91.27 17.3209C91.27 19.1113 91.704 20.466 92.573 21.3841C93.441 22.3022 94.689 22.7617 96.317 22.7617ZM127.538 8.64358C128.298 8.64358 128.908 8.8272 129.369 9.19358C129.831 9.56166 130.061 10.055 130.061 10.6743V24.2763C130.061 26.9163 129.193 28.9132 127.457 30.2687C125.72 31.6226 123.157 32.2995 119.765 32.2995C116.808 32.2995 114.339 31.8299 112.359 30.8881C111.355 30.383 110.853 29.7746 110.853 29.063C110.853 28.5578 110.989 28.1567 111.26 27.858C111.558 27.5593 111.938 27.4096 112.399 27.4096C112.644 27.4096 112.942 27.4561 113.295 27.5483C113.647 27.6626 114.014 27.7895 114.393 27.9266C115.243 28.2325 116.112 28.4969 116.998 28.7186C117.785 28.9022 118.68 28.9944 119.684 28.9944C123.238 28.9944 125.015 27.5255 125.015 24.586V22.3826C124.418 23.3244 123.55 24.058 122.411 24.5868C121.271 25.092 119.969 25.3441 118.504 25.3441C116.767 25.3441 115.221 24.9997 113.864 24.3118C112.535 23.5993 111.491 22.6127 110.731 21.3503C109.971 20.087 109.591 18.6299 109.591 16.9765C109.591 15.324 109.958 13.866 110.69 12.6036C111.45 11.3174 112.508 10.3308 113.864 9.64204C115.221 8.93043 116.767 8.5742 118.504 8.5742C119.969 8.5742 121.271 8.8382 122.411 9.3662C123.521 9.84699 124.43 10.6042 125.015 11.5357V10.6405C125.015 10.044 125.246 9.56166 125.707 9.19358C126.168 8.8272 126.779 8.64358 127.538 8.64358ZM119.847 22.0043C121.475 22.0043 122.736 21.5559 123.631 20.6615C124.554 19.7654 125.015 18.5377 125.015 16.9765C125.015 15.3925 124.554 14.1529 123.631 13.2577C122.736 12.3624 121.475 11.9148 119.847 11.9148C118.246 11.9148 116.984 12.3624 116.062 13.2577C115.14 14.1529 114.678 15.3925 114.678 16.9765C114.678 18.5377 115.14 19.7654 116.062 20.6615C116.984 21.5567 118.246 22.0043 119.847 22.0043ZM142.533 26.1014C139.576 26.1014 137.189 25.6081 135.371 24.6207C134.503 24.1849 134.069 23.5647 134.069 22.7617C134.069 22.3022 134.218 21.935 134.516 21.66C134.815 21.3613 135.181 21.2115 135.615 21.2115C136.076 21.2115 136.714 21.396 137.528 21.7632C138.396 22.1076 139.183 22.3716 139.888 22.5552C140.621 22.7388 141.543 22.8302 142.655 22.8302C143.795 22.8302 144.677 22.6694 145.301 22.3479C145.952 22.0264 146.277 21.5796 146.277 21.005C146.277 20.6158 146.142 20.3053 145.87 20.076C145.626 19.8458 145.165 19.6394 144.487 19.4557C143.835 19.2493 142.832 19.02 141.475 18.767C139.061 18.354 137.324 17.7685 136.266 17.0112C135.235 16.2539 134.72 15.2089 134.72 13.8779C134.72 12.8676 135.072 11.9605 135.778 11.1567C136.483 10.3308 137.446 9.69958 138.667 9.26296C139.915 8.80435 141.326 8.5742 142.899 8.5742C144.039 8.5742 145.138 8.70112 146.196 8.95327C147.205 9.16501 148.167 9.51362 149.045 9.98558C149.913 10.445 150.347 11.0534 150.347 11.8116C150.347 12.2702 150.198 12.6611 149.899 12.9818C149.601 13.2805 149.234 13.4303 148.8 13.4303C148.502 13.4303 148.203 13.3837 147.905 13.2923C147.548 13.1385 147.195 12.9777 146.847 12.81C146.06 12.4657 145.382 12.2135 144.812 12.0527C144.242 11.8691 143.537 11.7769 142.696 11.7769C141.692 11.7769 140.892 11.9495 140.295 12.293C139.725 12.6374 139.44 13.1087 139.44 13.7053C139.44 14.279 139.739 14.7156 140.336 15.0134C140.933 15.3121 142.086 15.6108 143.795 15.9095C145.613 16.231 147.037 16.5974 148.068 17.0112C149.099 17.4241 149.831 17.9411 150.265 18.5605C150.727 19.1807 150.957 19.9727 150.957 20.9365C150.957 22.4977 150.184 23.7491 148.638 24.69C147.118 25.631 145.083 26.1014 142.533 26.1014Z" fill="#9C9C9C"/>
</svg>

<svg width="152" height="33" fill="none" xmlns="http://www.w3.org/2000/svg"><path fill-rule="evenodd" clip-rule="evenodd" d="M23.024 14.258h2.717c2.808 0 4.325 2.785 2.496 4.59l-2.66 2.623c.288 1.556 1.259 2.963 2.719 3.94 1.461.976 3.304 1.452 5.161 1.33 1.857-.12 3.592-.828 4.86-1.982 1.267-1.154 1.972-2.67 1.975-4.246 0-.274.063-.545.187-.798s.306-.483.535-.677c.229-.194.5-.347.8-.452.3-.104.62-.158.944-.157.654 0 1.28.22 1.743.61.463.391.723.921.724 1.474 0 2.188-.815 4.321-2.328 6.095-1.133 1.326-2.618 2.408-4.336 3.16a14.182 14.182 0 0 1-5.553 1.165 14.235 14.235 0 0 1-5.578-1.076c-1.735-.724-3.244-1.782-4.406-3.09-1.163 1.308-2.672 2.366-4.406 3.09a14.234 14.234 0 0 1-5.578 1.076 14.182 14.182 0 0 1-5.553-1.166c-1.718-.75-3.203-1.833-4.336-3.159C1.637 24.834.822 22.702.822 20.513c0-.274.063-.545.187-.798s.306-.484.535-.677c.23-.194.501-.347.8-.452.3-.104.621-.158.945-.157.654 0 1.28.22 1.743.61.463.391.723.921.724 1.474-.003 1.578.7 3.098 1.966 4.256.946.864 2.16 1.485 3.504 1.792a8.7 8.7 0 0 0 4.094-.057c1.33-.345 2.52-1 3.432-1.89.91-.89 1.507-1.98 1.72-3.144l-2.662-2.623c-1.828-1.804-.312-4.588 2.5-4.588h2.714v-.001Z" fill="#9C9C9C"/><path d="M34.535 8.699c.648 0 1.289-.107 1.887-.317a5.07 5.07 0 0 0 1.6-.903 4.202 4.202 0 0 0 1.07-1.354 3.623 3.623 0 0 0 .377-1.596c0-.548-.128-1.09-.376-1.597a4.202 4.202 0 0 0-1.07-1.353 5.07 5.07 0 0 0-1.6-.904A5.718 5.718 0 0 0 34.534.36c-.647 0-1.289.107-1.887.317a5.071 5.071 0 0 0-1.6.903 4.202 4.202 0 0 0-1.07 1.353 3.624 3.624 0 0 0-.376 1.597c0 .548.128 1.09.376 1.596s.612.966 1.07 1.353a5.071 5.071 0 0 0 1.6.904c.598.21 1.24.317 1.887.317Zm-23.023 0c.647 0 1.289-.108 1.887-.317a5.071 5.071 0 0 0 1.6-.904 4.202 4.202 0 0 0 1.07-1.353 3.624 3.624 0 0 0 .376-1.596c0-.548-.128-1.09-.376-1.597a4.202 4.202 0 0 0-1.07-1.353 5.071 5.071 0 0 0-1.6-.903 5.718 5.718 0 0 0-1.887-.317c-.648 0-1.289.107-1.887.316a5.07 5.07 0 0 0-1.6.904 4.202 4.202 0 0 0-1.07 1.353 3.623 3.623 0 0 0-.377 1.597c0 .548.128 1.09.376 1.596.248.507.612.966 1.07 1.354a5.07 5.07 0 0 0 1.6.903c.6.21 1.24.317 1.888.317Zm67.933-7.321c.76 0 1.384.183 1.872.55.488.368.732.85.732 1.447v20.592c0 .62-.23 1.113-.692 1.48-.46.368-1.071.551-1.83.551-.76 0-1.37-.183-1.832-.55-.461-.368-.692-.861-.692-1.48v-.862c-.597.941-1.465 1.675-2.605 2.203-1.112.528-2.387.792-3.825.792-1.71 0-3.242-.367-4.598-1.101a8 8 0 0 1-3.134-3.1c-.733-1.354-1.099-2.903-1.099-4.648 0-1.744.366-3.27 1.099-4.58a7.833 7.833 0 0 1 3.134-3.03c1.329-.712 2.862-1.068 4.598-1.068 1.438 0 2.713.253 3.826.758 1.085.482 1.976 1.225 2.563 2.135V3.306c0-.574.217-1.033.651-1.377.462-.368 1.072-.551 1.832-.551Zm-7.529 21.384c1.628 0 2.876-.47 3.744-1.413.895-.94 1.343-2.284 1.343-4.028 0-1.745-.448-3.077-1.343-3.994-.868-.942-2.102-1.413-3.703-1.413-1.628 0-2.89.46-3.785 1.378-.895.918-1.343 2.238-1.343 3.96 0 1.745.448 3.099 1.343 4.064.895.964 2.143 1.446 3.744 1.446Zm24.441 3.34c-2.034 0-3.825-.356-5.371-1.068-1.52-.711-2.7-1.732-3.541-3.064-.841-1.332-1.262-2.881-1.262-4.65 0-1.767.42-3.305 1.262-4.613.841-1.332 2.021-2.353 3.54-3.065 1.547-.712 3.338-1.068 5.372-1.068 2.035 0 3.812.356 5.331 1.068 1.523.691 2.759 1.76 3.541 3.065.841 1.308 1.262 2.846 1.262 4.614 0 1.768-.421 3.317-1.262 4.649-.782 1.304-2.018 2.373-3.541 3.064-1.519.711-3.296 1.067-5.33 1.067h-.001Zm-.04-3.34c1.655 0 2.916-.46 3.784-1.378.869-.918 1.303-2.273 1.303-4.063 0-1.768-.434-3.11-1.303-4.029-.868-.941-2.116-1.412-3.744-1.412-1.627 0-2.89.47-3.784 1.412-.868.918-1.303 2.261-1.303 4.029 0 1.79.434 3.145 1.303 4.063.868.918 2.116 1.378 3.744 1.378Zm31.221-14.118c.76 0 1.37.183 1.831.55.462.368.692.861.692 1.48v13.602c0 2.64-.868 4.637-2.604 5.993-1.737 1.354-4.3 2.03-7.692 2.03-2.957 0-5.426-.47-7.406-1.41-1.004-.506-1.506-1.114-1.506-1.826 0-.505.136-.906.407-1.205.298-.299.678-.448 1.139-.448.245 0 .543.046.896.138.352.115.719.242 1.098.379.85.306 1.719.57 2.605.792.787.183 1.682.275 2.686.275 3.554 0 5.331-1.468 5.331-4.408v-2.203c-.597.941-1.465 1.675-2.604 2.204-1.14.505-2.442.757-3.907.757-1.737 0-3.283-.344-4.64-1.032a7.985 7.985 0 0 1-3.133-2.962c-.76-1.263-1.14-2.72-1.14-4.373s.367-3.111 1.099-4.373a7.606 7.606 0 0 1 3.174-2.962c1.357-.712 2.903-1.068 4.64-1.068 1.465 0 2.767.264 3.907.792 1.11.481 2.019 1.238 2.604 2.17v-.896c0-.596.231-1.078.692-1.446.461-.367 1.072-.55 1.831-.55Zm-7.691 13.36c1.628 0 2.889-.448 3.784-1.343.923-.896 1.384-2.123 1.384-3.684 0-1.585-.461-2.824-1.384-3.72-.895-.895-2.156-1.342-3.784-1.342-1.601 0-2.863.447-3.785 1.343-.922.895-1.384 2.135-1.384 3.719 0 1.56.462 2.788 1.384 3.684.922.896 2.184 1.343 3.785 1.343Zm22.686 4.097c-2.957 0-5.344-.493-7.162-1.48-.868-.436-1.302-1.056-1.302-1.86 0-.459.149-.826.447-1.101a1.495 1.495 0 0 1 1.099-.448c.461 0 1.099.184 1.913.551.868.345 1.655.609 2.36.792.733.184 1.655.275 2.767.275 1.14 0 2.022-.16 2.646-.482.651-.322.976-.768.976-1.343 0-.39-.135-.7-.407-.929-.244-.23-.705-.437-1.383-.62-.652-.207-1.655-.436-3.012-.689-2.414-.413-4.151-.998-5.209-1.756-1.031-.757-1.546-1.802-1.546-3.133 0-1.01.352-1.918 1.058-2.721.705-.826 1.668-1.457 2.889-1.894 1.248-.459 2.659-.689 4.232-.689 1.14 0 2.239.127 3.297.38 1.009.211 1.971.56 2.849 1.032.868.459 1.302 1.067 1.302 1.826 0 .458-.149.85-.448 1.17a1.494 1.494 0 0 1-1.099.448c-.298 0-.597-.046-.895-.138-.357-.153-.71-.314-1.058-.482-.787-.344-1.465-.597-2.035-.757-.57-.184-1.275-.276-2.116-.276-1.004 0-1.804.173-2.401.516-.57.344-.855.816-.855 1.412 0 .574.299 1.01.896 1.308.597.3 1.75.598 3.459.896 1.818.322 3.242.688 4.273 1.102 1.031.413 1.763.93 2.197 1.55.462.62.692 1.412.692 2.375 0 1.562-.773 2.813-2.319 3.754-1.52.941-3.555 1.411-6.105 1.411Z" fill="#9C9C9C"/></svg>
